X: 6521
T: Cat's Meow, The
R: jig
M: 6/8
K: Dmajor
A2G|:FAd ~f3|afe dBA|~B3 BAF|dAF ~E3|
FAd ~f3|afe dBA|B/c/de edB|AFE Dz2:|
|:fdB ~A3|DFA d z f|fef ged|ced cBA|
fdB ~A3|DFA d3|~g3 age|1 edc d z a:|2 edc d3||
FAd a3-|agf agf|Ace ~g3|gfe gfe|
edf geg|afa bag|f z a gfe|edc dz2||
FAd aba|agf ~a3|Ace ~g3|gfe ~g3|
~f3 ~g3|a z a bag|a z d g z c|dAF Dz2||

